!! 00008] TT[TB
!! Eigene Aufnahme
!!!OTL: Lupang de yushu
!!!ARE: Neimeng Yikezhaomeng
!! Ethnic Group: Menggu
!! IV, 355
!!!SCT: C0198
!!!YEM: Copyright 1995, estate of Helmut Schaffrath.
**kern
*ICvox
*Ivox
*M2/4
*k[f#c#g#d#]
*E:
{4cc#
4cc#
=1
8cc#
8b
4g#
=2
8ff#
8ee
4cc#
=3
8b
8g#
4f#}
=4
{8.g#
16b
8cc#
8ee
=5
8b
8g#
8e
8f#
=6
[2g#
=7
2g#]}
=8
{8ff#
8ee
4cc#
=9
4cc#
4f#
=10
8cc#
8b
4g#
=11
8g#
8e
4c#}
=12
{8.c#
16e
8f#
8g#
=13
8g#
8f#
8e
8B
=14
[2c#
=15
2c#]}
==
!!!AGN: Duan ge. Biaoda aiqing
!! Saenger: Chao Lun Batou; Variante der Phrasen 3 und 4
!!!ONB: ESAC (Essen Associative Code) Database: CHINA
!!!AMT: simple duple
!!!AIN: vox
!!!EED: Helmut Schaffrath
!!!EEV: 1.0
*-
!!!ONB: Tied note syntax fixed by Craig Sapp, 2004/05/03/
